brandFactory_export/2.Regular/Portapapeles_2Regular.svg

<?xml version="1.0" encoding="UTF-8"?>
<svg width="24px" height="24px" viewBox="0 0 24 24" version="1.1" xmlns="http://www.w3.org/2000/svg" xmlns:xlink="http://www.w3.org/1999/xlink">
    <title>2.Regular/Portapapeles_2Regular</title>
    <g id="Symbols" stroke="none" stroke-width="1" fill="none" fill-rule="evenodd">
        <g id="2.Regular/Portapapeles_2Regular" fill="#5CB615" fill-rule="nonzero">
            <path d="M18.8218487,22.2084034 C19.1008403,22.2084034 19.302521,22.0571429 19.3327731,22.0033613 L19.3226891,3.28403361 C19.3226891,3.30084034 19.0907563,3.12941176 18.8218487,3.12941176 L15.6453782,3.12941176 C15.6487395,3.16302521 15.6554622,3.19327731 15.6588235,3.2302521 L15.6621849,3.32436975 L15.6655462,3.46218487 L15.6621849,3.58991597 C15.6016807,5.40168067 13.810084,5.65714286 11.887395,5.65714286 C9.96470588,5.65714286 8.17647059,5.40168067 8.1092437,3.55966387 L8.1092437,3.46218487 L8.11260504,3.31092437 L8.11932773,3.18991597 C8.11932773,3.16638655 8.12605042,3.14957983 8.12941176,3.12605042 L4.94957983,3.12605042 C4.6907563,3.12605042 4.47226891,3.28403361 4.43529412,3.34789916 L4.4487395,22.0537815 C4.46890756,22.0571429 4.67058824,22.2084034 4.94957983,22.2084034 L18.8218487,22.2084034 Z M11.887395,1.41512605 C9.88067227,1.41512605 9.57815126,2.42016807 9.53781513,3.29747899 L9.53109244,3.46554622 C9.54453782,3.78823529 9.55798319,4.2487395 11.887395,4.2487395 C14.2168067,4.2487395 14.2302521,3.78823529 14.2403361,3.51260504 L14.2403361,3.37142857 C14.2336134,3.11596639 14.1966387,2.86386555 14.1226891,2.61848739 C14.0285714,2.31932773 13.7462185,1.41512605 11.887395,1.41512605 Z M18.8218487,1.71764706 C19.8470588,1.71764706 20.7445378,2.45042017 20.7445378,3.28403361 L20.7445378,22.0571429 C20.7445378,22.907563 19.8638655,23.6235294 18.8218487,23.6235294 L4.94957983,23.6235294 C3.90756303,23.6235294 3.02689076,22.9042017 3.02689076,22.0571429 L3.02689076,3.28067227 C3.02689076,2.44705882 3.92773109,1.71428571 4.94957983,1.71428571 L8.49579832,1.71428571 C9.0605042,0.618487395 10.2268908,0 11.887395,0 C13.9109244,0 14.8487395,0.850420168 15.2823529,1.71764706 L18.8218487,1.71764706 L18.8218487,1.71764706 Z M11.0504202,3.75798319 C10.6840336,3.75798319 10.3882353,3.46218487 10.3882353,3.09915966 C10.3882353,2.73613445 10.6840336,2.44033613 11.0504202,2.44033613 L12.7210084,2.44033613 C13.087395,2.44033613 13.3865546,2.73613445 13.3865546,3.09915966 C13.3865546,3.46218487 13.087395,3.75798319 12.7210084,3.75798319 L11.0504202,3.75798319 Z" id="Portapapeles_2Regular"></path>
        </g>
    </g>
</svg>

<svg width="24" height="24" viewBox="0 0 24 24" xmlns="http://www.w3.org/2000/svg"><path d="M18.822 22.208c.279 0 .48-.15.51-.205l-.01-18.719c0 .017-.231-.155-.5-.155h-3.177c.004.034.01.064.014.101l.003.094.004.138-.004.128c-.06 1.812-1.852 2.067-3.775 2.067-1.922 0-3.71-.255-3.778-2.097v-.098l.004-.151.006-.121c0-.024.007-.04.01-.064H4.95c-.258 0-.477.158-.514.222l.014 18.706c.02.003.222.154.5.154h13.873zM11.887 1.415c-2.006 0-2.309 1.005-2.35 1.882l-.006.169c.014.322.027.783 2.356.783 2.33 0 2.343-.46 2.353-.736V3.37a2.86 2.86 0 00-.117-.753c-.094-.299-.377-1.203-2.236-1.203zm6.935.303c1.025 0 1.923.732 1.923 1.566v18.773c0 .85-.881 1.567-1.923 1.567H4.95c-1.042 0-1.923-.72-1.923-1.567V3.281c0-.834.9-1.567 1.923-1.567h3.546C9.06.618 10.226 0 11.887 0c2.024 0 2.962.85 3.395 1.718h3.54zm-7.772 2.04a.66.66 0 01-.662-.659.66.66 0 01.662-.659h1.671c.366 0 .666.296.666.66 0 .362-.3.658-.666.658h-1.67z" fill="#5CB615" fill-rule="nonzero"/></svg>
